Gruvbox-Plus-Light/status/16/changes-allow.svg

<svg width="16" height="16" version="1" xmlns="http://www.w3.org/2000/svg">
  <path d="m8 1c-2.216 0-4 1.784-4 4h2c0-1.108 0.892-2 2-2s2 0.892 2 2v2h2v-2c0-2.216-1.784-4-4-4z" fill="#928374"/>
  <rect transform="matrix(0,-1,-1,0,0,0)" x="-16" y="-14" width="9" height="12" rx="1" ry="1" fill="#cc241d"/>
  <rect x="2" y="9" width="12" height="5" rx="0" ry="0" fill="#fb4934"/>
</svg>

<svg xmlns="http://www.w3.org/2000/svg" width="16" height="16" version="1">
 <path d="M 8 1 C 5.784 1 4 2.784 4 5 L 6 5 C 6 3.892 6.892 3 8 3 C 9.108 3 10 3.892 10 5 L 10 7 L 12 7 L 12 5 C 12 2.784 10.216 1 8 1 z" style="fill:#928374"/>
 <rect width="9" height="12" x="-16" y="-14" rx="1" ry="1" transform="matrix(0,-1,-1,0,0,0)" style="fill:#cc241d"/>
 <rect width="12" height="5" x="2" y="9" rx="0" ry="0" style="fill:#fb4934"/>
</svg>
